X: 5
T:Plough and the Stars, The
M:C|
L:1/8
R:reel
K:G
GEDE GABd|g2bg aged|Bd~d2 ed~d2|gedB AcBA|
GEDE GABd|g2bg aged|Bd~d2 gedB|1 AGAB G2BA:|2 AGAB G2 (3def||
|:g3b a3b|g2bg aged|Bd~d2 ed~d2|gedB AcBA|
GEDE GABd|g2bg aged|Bd~d2 gedB|1 AGAB G2 (3def:|2 AGAB G2 BA||

